src/assets/filled/Hashtag1.svg

<svg width="24" height="24" viewBox="0 0 24 24"  xmlns="http://www.w3.org/2000/svg">
<path d="M8.05005 10.1398V11.2998H11.31V8.0498H10.15C8.99005 8.0498 8.05005 8.9898 8.05005 10.1398Z" />
<path d="M8.05005 13.8602C8.05005 15.0102 8.99005 15.9502 10.14 15.9502H11.3V12.7002H8.05005V13.8602Z" />
<path d="M12.7 15.9502H13.86C15.01 15.9502 15.95 15.0102 15.95 13.8602V12.7002H12.7V15.9502Z" />
<path d="M16.19 2H7.81C4.17 2 2 4.17 2 7.81V16.18C2 19.83 4.17 22 7.81 22H16.18C19.82 22 21.99 19.83 21.99 16.19V7.81C22 4.17 19.83 2 16.19 2ZM17.35 13.86C17.35 15.78 15.78 17.35 13.86 17.35H10.14C8.22 17.35 6.65 15.79 6.65 13.86V10.14C6.65 8.22 8.22 6.65 10.14 6.65H13.86C15.78 6.65 17.35 8.21 17.35 10.14V13.86Z" />
<path d="M13.86 8.0498H12.7V11.3098H15.96V10.1498C15.95 8.9898 15.01 8.0498 13.86 8.0498Z" />
</svg>

<?xml version="1.0" encoding="UTF-8"?>
<svg width="24" height="24" viewBox="0 0 24 24" xmlns="http://www.w3.org/2000/svg">
 <path d="m8.05 10.14v1.16h3.26v-3.25h-1.16c-1.16 0-2.1 0.94-2.1 2.09z"/>
 <path d="m8.05 13.86c0 1.15 0.94 2.09 2.09 2.09h1.16v-3.25h-3.25v1.16z"/>
 <path d="m12.7 15.95h1.16c1.15 0 2.09-0.94 2.09-2.09v-1.16h-3.25v3.25z"/>
 <path d="m16.19 2h-8.38c-3.64 0-5.81 2.17-5.81 5.81v8.37c0 3.65 2.17 5.82 5.81 5.82h8.37c3.64 0 5.81-2.17 5.81-5.81v-8.38c0.01-3.64-2.16-5.81-5.8-5.81zm1.16 11.86c0 1.92-1.57 3.49-3.49 3.49h-3.72c-1.92 0-3.49-1.56-3.49-3.49v-3.72c0-1.92 1.57-3.49 3.49-3.49h3.72c1.92 0 3.49 1.56 3.49 3.49v3.72z"/>
 <path d="m13.86 8.0498h-1.16v3.26h3.26v-1.16c-0.01-1.16-0.95-2.1-2.1-2.1z"/>
</svg>
